!!!OTL: NAPOLEON DU GROSSER SIEGER
!!!ARE: Europa, Mitteleuropa, Deutschland, Wetterau
!!!SCT: E0351
!!!YEM: Copyright 1995, estate of Helmut Schaffrath.
**kern
*ICvox
*Ivox
!! Mixed meters:  3/4; 2/4
*M3/4
*k[f#]
*G:
{8d
8d
8f#
=1
4g
4b
8b
8a
=2
8a
8g
8r}
{8g
8g
8b
=3
4dd
4dd
8dd
8cc
=4
8cc
8b
4.r}
{8g
=5
*M2/4
8g
8ee
8ee
8ee
=6
8ee
8dd
4dd}
=7
{8dd
8cc
8ee
8cc
=8
8cc
8b
8dd}
{8g
=9
8g
8ee
8ee
8ee
=10
8ee
8dd
4dd}
=11
{8dd
8cc
8ee
8cc
=12
8cc
8b
4dd}
=13
{16a
16a
16a
16a
4cc
=14
16b
16b
16b
16b
4dd}
=15
{8b
8cc
8.dd
16ee
=16
8dd
8cc
8b
8a
=17
4g
4r}
=18
{16a
16a
16a
16a
4cc
=19
16b
16b
16b
16b
4dd}
=20
{8b
8cc
8.dd
16ee
=21
8dd
8cc
8b
8a
=22
4g
8r}
==
!!!AGN: historisches Lied, Napoleons russischer Feldzug (1812)
!!!ONB: ESAC (Essen Associative Code) Database: ERK1
!!!AMT: irregular
!!!AIN: vox
!!!EED: Helmut Schaffrath
!!!EEV: 1.0
*-
